dist/img/58.svg

<svg version="1.1" xmlns="http://www.w3.org/2000/svg" xmlns:xlink="http://www.w3.org/1999/xlink" x="0px" y="0px" width="512px" height="512px"><path d="M127.7110596,34.453125c-170.2814331,98.1691895-170.2813721,344.9245605,0.000061,443.093689S512,452.3383179,512,256S297.9924927-63.7160034,127.7110596,34.453125z M325.8793945,75.6665039c22.7418823-13.1055908,51.3236084,3.3652954,51.3236084,29.5764771s-28.5817261,42.6820679-51.3236084,29.5765381C303.1375122,121.7139282,303.1375122,88.7720947,325.8793945,75.6665039z M64.7759399,285.5698242c-22.7359009-13.1074829-22.7359009-46.0541992,0-59.1616821s51.3100586,3.3658447,51.3100586,29.5808716C116.0859985,282.2039795,87.5118408,298.6773071,64.7759399,285.5698242z M112.2163696,293.2244263C135.75,274,136.25,239.25,112.2163696,218.7755737c9.255249-35.7762451,31.4993286-66.3251343,61.3920288-86.3063965l24.9822388,41.8633423C142.0717773,215.2126465,141.5,297,198.5906372,337.6900635l-24.9822388,41.8633423C143.6931152,359.5721436,121.4489746,329.0231934,112.2163696,293.2244263z M325.9144287,436.3146973c-22.7272339-13.1079102-22.7272339-46.055542,0-59.1633911c22.7272339-13.1079102,51.2905884,3.3659058,51.2905884,29.581665S348.6416626,449.4225464,325.9144287,436.3146973z M360.0247803,361.8577271c-31.6914673-11.1911011-59.6914673,8.4755859-64.3564453,37.2243652c-39.8579102,10.8313599-75.9614258,4.5881958-105.4730225-9.9793091l23.7602539-42.5648193c59.5892334,29.0678711,134.3777466-10.8713379,141.4754639-81.7127686l48.7199097,0.7241211C401.7522583,303.2036743,385.3010864,337.0111694,360.0247803,361.8577271z M355.4537354,247.1521606C348,179,277.666687,135.666626,213.9782715,165.4393921l-23.7603149-42.5648193C223.3875732,106.7622681,259.833374,103,295.668396,112.8952637C300.2098999,141.7922363,331,161,360.0247803,150.1196899c25.2764282,24.8464355,41.7275391,58.6539307,44.1262207,96.3083496L355.4537354,247.1521606z"/></svg>

<svg xmlns="http://www.w3.org/2000/svg" width="512" height="512"><path d="M127.711 34.453c-170.281 98.17-170.281 344.925 0 443.094S512 452.338 512 256 297.992-63.716 127.711 34.453zM325.88 75.667c22.742-13.106 51.324 3.365 51.324 29.576s-28.582 42.682-51.324 29.577c-22.741-13.106-22.741-46.048 0-59.153zM64.776 285.57c-22.736-13.108-22.736-46.054 0-59.162s51.31 3.366 51.31 29.581-28.574 42.688-51.31 29.58zm47.44 7.654c23.534-19.224 24.034-53.974 0-74.448 9.256-35.777 31.5-66.326 61.392-86.307l24.983 41.864c-56.52 40.88-57.091 122.667 0 163.357l-24.983 41.863c-29.915-19.98-52.159-50.53-61.392-86.329zm213.698 143.09c-22.727-13.107-22.727-46.055 0-59.163 22.728-13.108 51.291 3.366 51.291 29.582s-28.563 42.69-51.29 29.582zm34.11-74.456c-31.69-11.191-59.69 8.475-64.356 37.224-39.858 10.831-75.961 4.588-105.473-9.98l23.76-42.564c59.59 29.068 134.378-10.871 141.476-81.713l48.72.724c-2.399 37.655-18.85 71.462-44.126 96.309zm-4.57-114.706C348 179 277.667 135.667 213.978 165.44l-23.76-42.564c33.17-16.113 69.615-19.875 105.45-9.98C300.21 141.792 331 161 360.025 150.12c25.276 24.846 41.727 58.654 44.126 96.308l-48.697.724z"/></svg>
